X:581
T:Rakish Paddy
M:C|
L:1/8
K:G
"C"c2 cB c2 AB|cBAG "D"FA A2|Add^c defe|dcAG FGAB|
"C"c2 cB c2 AB|cBAG "D"FA A2|DEFG ABcA|dcAG FG A2:|
|:"C"eggg aggg|eggg edcd|"Am"eaaa baaa|eaaa edcd|
"C"eggg aggg|"D"fgfe defg|afge fdec|dcAG FG A2:|
